dist/instagram-icon.66294631.svg

<svg width="15" height="15" viewBox="0 0 15 15" fill="none" xmlns="http://www.w3.org/2000/svg">
<path d="M13.395 0.0184326H2.20275C1.43328 0.0184326 0.803711 0.648898 0.803711 1.41947V12.6277C0.803711 13.3983 1.43328 14.0288 2.20275 14.0288H13.395C14.1645 14.0288 14.7941 13.3983 14.7941 12.6277V1.41947C14.7941 0.648898 14.1645 0.0184326 13.395 0.0184326ZM7.79889 4.22154C9.33783 4.22154 10.597 5.48247 10.597 7.0236C10.597 8.56474 9.33783 9.82567 7.79889 9.82567C6.25995 9.82567 5.00082 8.56474 5.00082 7.0236C5.00082 5.48247 6.25995 4.22154 7.79889 4.22154ZM2.55251 12.6277C2.34265 12.6277 2.20275 12.4876 2.20275 12.2775V6.32309H3.67173C3.60178 6.53324 3.60178 6.81345 3.60178 7.0236C3.60178 9.33531 5.49048 11.2267 7.79889 11.2267C10.1073 11.2267 11.996 9.33531 11.996 7.0236C11.996 6.81345 11.996 6.53324 11.926 6.32309H13.395V12.2775C13.395 12.4876 13.2551 12.6277 13.0453 12.6277H2.55251ZM13.395 3.17076C13.395 3.38091 13.2551 3.52102 13.0453 3.52102H11.6462C11.4364 3.52102 11.2965 3.38091 11.2965 3.17076V1.76973C11.2965 1.55957 11.4364 1.41947 11.6462 1.41947H13.0453C13.2551 1.41947 13.395 1.55957 13.395 1.76973V3.17076Z" fill="#2C4CBC"/>
</svg>

<svg xmlns="http://www.w3.org/2000/svg" width="15" height="15" fill="none" xmlns:v="https://vecta.io/nano"><path d="M13.395.018H2.203C1.433.018.804.649.804 1.419v11.208c0 .771.63 1.401 1.399 1.401h11.192c.77 0 1.399-.63 1.399-1.401V1.419c0-.771-.63-1.401-1.399-1.401zM7.799 4.222a2.81 2.81 0 0 1 2.798 2.802 2.81 2.81 0 0 1-2.798 2.802 2.81 2.81 0 0 1-2.798-2.802 2.81 2.81 0 0 1 2.798-2.802zm-5.246 8.406a.33.33 0 0 1-.35-.35V6.323h1.469c-.07.21-.07.49-.07.701 0 2.312 1.889 4.203 4.197 4.203s4.197-1.891 4.197-4.203c0-.21 0-.49-.07-.701h1.469v5.954a.33.33 0 0 1-.35.35H2.553zm10.842-9.457a.33.33 0 0 1-.35.35h-1.399a.33.33 0 0 1-.35-.35V1.77a.33.33 0 0 1 .35-.35h1.399a.33.33 0 0 1 .35.35v1.401z" fill="#2c4cbc"/></svg>
